X:17
T: CHRISTINCHEN GIENG IN GARTEN
N: E0002E
O: Europa, Mitteleuropa, Deutschland, Hannover
R: Sage, Maerchen -, Zauber - Lied; Kinder - Lied
M: 4/4
L: 1/4
K: G
D | GGDD | EDz
D | GGDD | EDz
D | DBBA | AGG
B | AAdd | BAG

